!!!!SEGMENT: Gom2011-Ave_sanctissima_Maria
!!!id: Gom2011
!!!AGN: Motet
!!!voices: 4
!!!COM: Nicolas Gombert
!!!OTL: Ave sanctissima Maria
**kern	**kern	**kern	**kern
*part4	*part3	*part2	*part1
*staff4	*staff3	*staff2	*staff1
*I"Bassus	*I"Tenor	*I"Altus	*I"Superius
*I'B.	*I'T.	*I'A.	*I'S.
*clefF4	*clefGv2	*clefGv2	*clefG2
*k[b-]	*k[b-]	*k[b-]	*k[b-]
*M2/1	*M2/1	*M2/1	*M2/1
*met(C|)	*met(C|)	*met(C|)	*met(C|)
=1	=1	=1	=1
!!section: Prima pars: Ave sanctissima Maria
!!!OMD: Prima pars: Ave sanctissima Maria
0r	0r	0r	1g
.	.	.	[1b-y
=2	=2	=2	=2
0r	0r	0r	2b-]
.	.	.	2g
.	.	.	2b-y
.	.	.	2b-y
=3	=3	=3	=3
0r	0r	1d	1a
.	.	[1f	2r
.	.	.	[2d
=4	=4	=4	=4
0r	0r	2f]	4d]
.	.	.	4e
.	.	2d	4f
.	.	.	4g
.	.	1f	2a
.	.	.	2a
=5	=5	=5	=5
0r	1rG	1e	1g
.	1G	2d	[1b-y
.	.	[2G	.
=6	=6	=6	=6
0r	1.B-y	4G]	2b-]
.	.	4A	.
.	.	4B-y	4a
.	.	4c	4g
.	.	2d	2f
.	2G	[2e	[2g
=7	=7	=7	=7
0r	2B-y	2e]	4g]
.	.	.	4f
.	2B-y	1d	2d
.	1A	.	1e
.	.	2c#i	.
=8	=8	=8	=8
1D	2r	1d	1d
.	2.D	.	.
[1F	.	1A	1r
.	4E	.	.
.	4F	.	.
.	4G	.	.
=9	=9	=9	=9
2F]	2A	0r	2r
2D	2.F	.	2.A
1F	.	.	.
.	4G	.	4B-y
.	4A	.	4c
.	4B-y	.	4d
=10	=10	=10	=10
1E	2.c	2.G	4e
.	.	.	4f
.	.	.	2g
.	8B-yL	4A	.
.	8cJ	.	.
2D	1d	4B-y	2f
.	.	4c	.
[2BB-y	.	4d	[2d
.	.	4e	.
=11	=11	=11	=11
4BB-]	1B-y	2f	4d]
4C	.	.	4e
4D	.	4e	4f
4E	.	4d	4g
2F	2A	2c	2a
2G	2G	2B-y	2b-y
=12	=12	=12	=12
1C	1c	1e-i	4a
.	.	.	4g
.	.	.	1g
1D	1A	2.d	.
.	.	.	2f#i
.	.	4c	.
=13	=13	=13	=13
1E	2r	2B-y	1g
.	1G	2G	.
1D	.	1A	2r
.	2F	.	[2d
=14	=14	=14	=14
0r	2G	1r	2d]
.	2A	.	2c
.	2B-y	2r	2.d
.	[2B-y	[2d	.
.	.	.	4e
=15	=15	=15	=15
0r	2B-]	2d]	1f
.	2A	2c	.
.	1G	2d	2r
.	.	2e	[2b-y
=16	=16	=16	=16
1.D	1F	2f	2b-]
.	.	1f	2a
.	1r	.	2g
2C	.	2e	2g
=17	=17	=17	=17
2.D	0r	2d	2f
.	.	4c	1d
4E	.	4B-y	.
1F	.	1A	.
.	.	.	2c
=18	=18	=18	=18
2r	2r	2G	2B-y
1F	1A	2c	2A
.	.	2d	2.B-y
2E	2G	2e	.
.	.	.	4c
=19	=19	=19	=19
2D	2A	1f	1d
2D	2B-y	.	.
1C	1c	1e	2G
.	.	.	[2g
=20	=20	=20	=20
0r	1B-y	1.d	2g]
.	.	.	2f
.	2B-y	.	2g
.	2A	2c	2a
=21	=21	=21	=21
1.G	2G	2d	2b-y
.	2G	4G	1b-y
.	.	4A	.
.	2G	4B-y	.
.	.	4c	.
2F	2A	[2d	2a
=22	=22	=22	=22
2E	2B-y	4d]	1g
.	.	4B-y	.
2E	2G	2c	.
2D	2A	2d	2f
[2E	[2G	2B-y	[2g
=23	=23	=23	=23
2E]	4G]	2B-y	2g]
.	4A	.	.
2D	1B-y	2B-y	2f
2C	.	1c	1e
2C	2A	.	.
=24	=24	=24	=24
[0BB-y	0B-y	1F	0d
.	.	2r	.
.	.	2d	.
=25	=25	=25	=25
1BB-]	0r	2d	2r
.	.	2d	2d
2r	.	1f	2d
2D	.	.	2d
=26	=26	=26	=26
2D	0r	2d	2.f
2D	.	1f	.
.	.	.	4g
2.F	.	.	2a
.	.	4e	4g
4G	.	4d	4f
=27	=27	=27	=27
2A	0r	2c	2e
2B-y	.	1d	2d
1A	.	.	1e
.	.	2c#i	.
=28	=28	=28	=28
2D	1r	2d	0d
2G	.	2B-y	.
2G	2r	2B-y	.
2G	2G	2B-y	.
=29	=29	=29	=29
2.B-y	2G	2d	1.d
.	2G	1B-y	.
4A	.	.	.
2G	2.B-y	.	.
4F	.	4A	2e
4E	4c	4G	.
=30	=30	=30	=30
2D	2d	4A	2f
.	.	4B-y	.
2C	2e-i	2c	1g
1D	1d	2.A	.
.	.	.	2f
.	.	4B-y	.
=31	=31	=31	=31
2C	2r	2c	2e
2BB-y	2G	1d	2d
1E-i	2G	.	1g
.	2G	2c	.
=32	=32	=32	=32
0D	1A	1d	2f
.	.	.	2a
.	1F	2r	2a
.	.	2d	2a
=33	=33	=33	=33
0r	0r	2d	1b-y
.	.	2d	.
.	.	1e	2g
.	.	.	2g
=34	=34	=34	=34
0r	1r	2c	2a
.	.	2c	2g
.	1G	2d	2.b-y
.	.	[2f	.
.	.	.	4a
=35	=35	=35	=35
0r	2G	4f]	2g
.	.	4e	.
.	2G	1d	2f
.	1A	.	1e
.	.	2c#i	.
=36	=36	=36	=36
1D	1F	0d	2d
.	.	.	2f
2D	2r	.	2f
2D	2B-y	.	2f
=37	=37	=37	=37
1E	2B-y	2r	1g
.	2B-y	2G	.
1C	1c	2G	1e
.	.	2G	.
=38	=38	=38	=38
2.F	2A	1A	2c
.	2D	.	2d
4E	.	.	.
2D	2D	2F	2f
2C	2E	2G	[2e
=39	=39	=39	=39
1BB-y	2F	2B-y	2e]
.	2D	2F	1d
1AA	1E	2A	.
.	.	2A	2c#i
=40	=40	=40	=40
1A	0D	0F	1d
2A	.	.	2r
2A	.	.	2a
=41	=41	=41	=41
0D	2r	1r	2a
.	2d	.	2a
.	2d	2r	1d
.	2d	2d	.
=42	=42	=42	=42
0r	2.G	2d	0r
.	.	2d	.
.	4A	.	.
.	4B-y	2.G	.
.	4c	.	.
.	[2d	.	.
.	.	4A	.
=43	=43	=43	=43
0r	2d]	4B-y	0r
.	.	4c	.
.	4c	2d	.
.	4B-y	.	.
.	2c	2e	.
.	[2e	2c	.
=44	=44	=44	=44
1A	2e]	1f	1r
.	1d	.	.
2A	.	1e	1a
2A	2c#i	.	.
=45	=45	=45	=45
1D	1d	2r	2a
.	.	2d	2a
1G	2B-y	2d	1d
.	[2G	2d	.
=46	=46	=46	=46
1E	2G]	1G	2.g
.	2.c	.	.
.	.	.	4f
1C	.	2.c	1e
.	4B-y	.	.
.	4A	.	.
.	4G	4B-y	.
=47	=47	=47	=47
0D	2F#i	2A	1d
.	1G	2B-y	.
.	.	1A	2r
.	2F#i	.	2d
=48	=48	=48	=48
0r	2G	0B-y	2d
.	2G	.	2d
.	2G	.	[1g
.	2G	.	.
=49	=49	=49	=49
0r	1.c	1r	2g]
.	.	.	2e
.	.	2r	2g
.	2A	2A	[2a
=50	=50	=50	=50
2r	2c	2A	4a]
.	.	.	4g
2D	2.d	2A	4f
.	.	.	4e
2D	.	[1d	1f
.	4c	.	.
2D	4B-y	.	.
.	4A	.	.
=51	=51	=51	=51
1.G	2B-y	2d]	1d
.	4A	2B-y	.
.	4G	.	.
.	2B-y	2d	1g
2E	2c	2e-i	.
=52	=52	=52	=52
2G	2B-y	2d	1r
2.A	2.c	2c	.
.	.	2d	2r
4G	4B-y	.	.
4F	4A	[2f	2d
4E	4G	.	.
=53	=53	=53	=53
2F	2A	4f]	2d
.	.	4e	.
2G	2B-y	1d	2d
1E	1G	.	[1g
.	.	2c#i	.
=54	=54	=54	=54
1D	1A	1d	2g]
.	.	.	2f
2r	1r	2B-y	2g
[2F	.	2c	[2a
=55	=55	=55	=55
4F]	0r	1.A	4a]
4E	.	.	4g
4D	.	.	4f
4C	.	.	4e
2D	.	.	2f
2E	.	2G	[2e
=56	=56	=56	=56
2F	2r	2A	2e]
2G	2G	1B-y	1d
1E	2G	.	.
.	2G	4A	2c#i
.	.	4G	.
=57	=57	=57	=57
1D	2F	1A	2d
.	2F	.	2d
1r	1B-y	1G	2d
.	.	.	2d
=58	=58	=58	=58
0r	1A	0r	2c
.	.	.	2c
.	2r	.	1f
.	[2d	.	.
=59	=59	=59	=59
0r	2d]	0r	2e
.	2c	.	1a
.	2A	.	.
.	2B-y	.	2g
=60	=60	=60	=60
1r	2c	0r	2e
.	4B-y	.	2f
.	4A	.	.
2r	2.G	.	2g
2G	.	.	4f
.	4A	.	4e
=61	=61	=61	=61
2G	4B-y	1r	2d
.	4c	.	.
2G	2.d	.	1b-y
2F	.	2r	.
.	4e	.	.
2F	[2f	2d	2a
=62	=62	=62	=62
1B-y	2f]	2d	2f
.	4e	2d	2g
.	4d	.	.
1A	1e	1c	[1a
=63	=63	=63	=63
1r	2d	1f	1a]
.	1d	.	.
2r	.	1e	2r
[2A	2c	.	[2cc
=64	=64	=64	=64
2A]	2A	2c	2cc]
2G	2B-y	2d	2b-y
2E	2c	2e-i	2g
2F	4B-y	2d	2a
.	4A	.	.
=65	=65	=65	=65
2G	1G	2B-y	2b-y
4F	.	2c	1g
4E	.	.	.
1D	1A	1d	.
.	.	.	2f
=66	=66	=66	=66
1G	1r	2.B-y	2d
.	.	.	2e
.	.	4c	.
1r	2r	2d	2f
.	[2c	[2e-i	2g
=67	=67	=67	=67
0r	2c]	2e-]	2a
.	2B-y	2d	1g
.	2G	2B-y	.
.	2A	2c	4f
.	.	.	4e
=68	=68	=68	=68
0r	2D	2d	2f
.	2d	2B-y	2d
.	2d	1A	1e
.	2c#i	.	.
=69	=69	=69	=69
1.G	2.d	1B-y	0d
.	4c	.	.
.	2B-y	2r	.
2F	2A	2d	.
=70	=70	=70	=70
2G	2B-y	2d	2r
2E	2G	2c	2g
1D	1A	1d	2g
.	.	.	2f#i
=71	=71	=71	=71
0r	2r	1B-y	4g
.	.	.	4f
.	2d	.	4e
.	.	.	4d
.	2d	1A	1e
.	2c#i	.	.
=72	=72	=72	=72
1.G	2.d	2.B-y	1d
.	4c	4c	.
.	2B-y	4d	1r
.	.	4e-i	.
2F	2A	[2d	.
=73	=73	=73	=73
2G	2B-y	2d]	1.g
2E	2G	2c	.
1D	1A	1d	.
.	.	.	2f#i
=74	=74	=74	=74
1r	0G	2B-y	2g
.	.	1c	2e
2r	.	.	1d
2G	.	2B-y	.
=75	=75	=75	=75
2A	0r	1c	2.c
2F	.	.	.
.	.	.	4d
1c	.	2r	4e
.	.	.	4f
.	.	2c	4g
.	.	.	4e
=76	=76	=76	=76
1.B-y	0r	2d	2.f
.	.	2B-y	.
.	.	.	4e
.	.	1f	2d
2A	.	.	2c
=77	=77	=77	=77
1G	0r	2e	1B-y
.	.	1d	.
2F	.	.	2r
[2G	.	4c	2d
.	.	4B-y	.
=78	=78	=78	=78
4G]	1r	2c	2e
4E	.	.	.
2D	.	1d	2d
1E	2r	.	1g
.	2G	2c#i	.
=79	=79	=79	=79
1D	2A	1d	2f
.	2F	.	2d
1r	2c	1A	1e
.	2c	.	.
=80	=80	=80	=80
0r	2B-y	1r	2.d
.	2G	.	.
.	.	.	4e
.	2A	2r	2f
.	2B-y	2G	4e
.	.	.	4d
=81	=81	=81	=81
0r	2c	2A	2f
.	2B-y	2G	1g
.	1A	1c	.
.	.	.	2f#i
=82	=82	=82	=82
2r	1G	2B-y	1g
2G	.	2G	.
2F	1r	2A	1r
2D	.	2B-y	.
=83	=83	=83	=83
2E	2r	2c	1r
2F	2c	2A	.
2G	2B-y	4G	2r
.	.	4A	.
2E	2G	4B-y	2g
.	.	4c	.
=84	=84	=84	=84
2D	2A	1d	2f
2G	2B-y	.	2d
2F	2c	[1A	2.f
2D	2d	.	.
.	.	.	4g
=85	=85	=85	=85
2.F	2c	2A]	2a
.	2.A	2d	4g
4G	.	.	4f
2A	.	2c	2e
.	4B-y	.	.
2F	4c	2A	2f
.	4d	.	.
=86	=86	=86	=86
2G	2B-y	2B-y	2d
2E	4A	2c	1g
.	4G	.	.
1D	1A	[1d	.
.	.	.	2f#i
=87	=87	=87	=87
2r	0G	0d]	1g
2G	.	.	.
2.B-y	.	.	2r
.	.	.	2g
4A	.	.	.
=88	=88	=88	=88
2G	1r	2r	2b-y
2G	.	2d	2b-y
[1D	2r	1f	2a
.	2d	.	2a
=89	=89	=89	=89
0D]	2.f	2r	4d
.	.	.	4e
.	.	2d	4f
.	4e	.	4g
.	1d	1f	2a
.	.	.	2f
=90	=90	=90	=90
1r	1c	1e	2g
.	.	.	2a
2r	2d	2f	[1b-y
2G	[2e	[2g	.
=91	=91	=91	=91
2B-y	2e]	4g]	2b-]
.	.	4f	.
2B-y	1d	2d	2g
2A	.	1e	1a
2A	2c#i	.	.
=92	=92	=92	=92
0D	1d	1f	2r
.	.	.	2a
.	2r	2r	2a
.	2d	2f	2a
=93	=93	=93	=93
0r	2d	2f	1.b-y
.	2d	2f	.
.	[1e	[1g	.
.	.	.	2a
=94	=94	=94	=94
0r	2e]	2g]	2g
.	2d	2f	1a
.	2.c	1e	.
.	.	.	2g
.	4B-y	.	.
=95	=95	=95	=95
1A	2c	0r	2f
.	1d	.	4e
.	.	.	4d
2A	.	.	1e
2A	2c#i	.	.
=96	=96	=96	=96
1B-y	1d	2r	1d
.	.	2d	.
1G	1B-y	2d	1r
.	.	2d	.
=97	=97	=97	=97
2.c	2A	2.e	0r
.	1c	.	.
4B-y	.	8dL	.
.	.	8eJ	.
2A	.	2f	.
2G	2B-y	[2e	.
=98	=98	=98	=98
2F	2A	2e]	0r
2G	1B-y	1d	.
1E	.	.	.
.	4A	2c#i	.
.	4G	.	.
=99	=99	=99	=99
0D	0F	0d	1.a
.	.	.	2f
=100	=100	=100	=100
0r	2r	2r	2g
.	1d	1f	2a
.	.	.	1b-y
.	2B-y	2d	.
=101	=101	=101	=101
0r	2c	2e	2a
.	2d	2f	1b-y
.	1e-i	1g	.
.	.	.	4a
.	.	.	4g
=102	=102	=102	=102
2r	2d	2f	0a
1A	1c	2.e	.
.	.	4c	.
2F	2A	2d	.
=103	=103	=103	=103
2G	2B-y	2e	2r
2A	2c	1f	2a
1B-y	1d	.	2f
.	.	4e	2g
.	.	4d	.
=104	=104	=104	=104
1A	2.c	1e	1a
.	4B-y	.	.
2r	2G	[1d	2b-y
[2D	2F	.	[2a
=105	=105	=105	=105
2D]	1B-y	1d]	2a]
2BB-y	.	.	1g
2C	1A	2r	.
2D	.	[2d	2f#i
=106	=106	=106	=106
1E-i	1.G	2d]	1g
.	.	2c	.
1D	.	2B-y	1r
.	2F	2A	.
=107	=107	=107	=107
1C	1E	1c	1.g
1r	1D	2B-y	.
.	.	2A	2f
=108	=108	=108	=108
0r	2r	2G	2e
.	1d	2B-y	2d
.	.	1A	2f
.	2c	.	2e
=109	=109	=109	=109
0r	2B-y	2r	2d
.	2A	2.c	1e
.	2c	.	.
.	.	4A	.
.	2B-y	[2d	2d
=110	=110	=110	=110
1r	1A	2d]	2.e
.	.	2c	.
.	.	.	4f
[1G	[1B-y	1d	1g
=111	=111	=111	=111
2G]	2B-]	2r	0r
2F	2A	2d	.
2E	2G	2c	.
2D	[2F	2B-y	.
=112	=112	=112	=112
1F	4F]	2A	0r
.	4G	.	.
.	4A	1c	.
.	4F	.	.
2E	2G	.	.
2D	2F	2BnXi	.
=113	=113	=113	=113
1C	1E	1c	1.g
1D	2D	1A	.
.	[2A	.	2f
=114	=114	=114	=114
2C	4A]	2r	2e
.	4F	.	.
2BB-y	2G	1d	2d
1AA	1A	.	2f
.	.	2c	2e
=115	=115	=115	=115
1D	1F	2B-y	4d
.	.	.	4e
.	.	2A	4f
.	.	.	4d
1C	2G	1c	1e
.	[2A	.	.
=116	=116	=116	=116
2D	2A]	2B-y	2d
2E	1G	4A	2c
.	.	4G	.
1D	.	2.A	1d
.	2F	.	.
.	.	4B-y	.
=117	=117	=117	=117
4C	2G	2c	1e
4D	.	.	.
4E	2.G	2.B-y	.
4F	.	.	.
2.G	.	.	1d
.	4A	4c	.
.	4B-y	[2d	.
4F	4c	.	.
=118	=118	=118	=118
2D	2.d	4d]	2.f
.	.	4c	.
2.F	.	2A	.
.	4c	.	4e
.	2A	2.c	2c
4E	.	.	.
2C	[2c	.	[2e-X
.	.	4B-y	.
=119	=119	=119	=119
2.E-i	4c]	2A	4e-]
.	4B-y	.	4d
.	2G	2.B-y	4B-y
4D	.	.	4c
4BB-y	2.B-y	.	4d
4C	.	4A	4eny
4D	.	4F	[2f
4Eny	4A	4G	.
=120	=120	=120	=120
2.F	4F	4A	4f]
.	4G	4B-y	4e
.	4A	2.c	4c
4E	4B-y	.	4d
4C	1c	.	4e
4D	.	4B-y	4f
4E	.	[2G	2g
4F	.	.	.
=121	=121	=121	=121
2G	2B-y	4G]	2d
.	.	4A	.
2E	2G	4B-y	1g
.	.	4c	.
1D	1A	1d	.
.	.	.	2f#i
=122	=122	=122	=122
1.G	[0Gl	0B-y	1g
.	.	.	1c
2F	.	.	.
=123	=123	=123	=123
1E	0G_	1B-y	0e
1C	.	1c	.
=124	=124	=124	=124
0Gl	0G]	0B-yl	0dl
==	==	==	==
*-	*-	*-	*-
!!!system-decoration: s1,s2,s3,s4
!!!RDF**kern: i = editorial accidental
!!!RDF**kern: l = terminal long
!!!ENC: Janosch Umbreit
!!!END: 2025/11/27
!!!EED: Benjamin Ory
!!!EEV: 2025/12/01
!!!YEC: Copyright 2025 Benjamin Ory, All Rights Reserved
!!!ONB: Translated from MusicXML on 2025/12/01
